X: 78
T: POLKA: Cobbler's
C: C: Trad.; S: De Danann; Johnny O'Leary
C: Set Leaders: Sophie, Anton, Tania
Z: [Unedited]; Nutty Nessie at The Session
N: https://thesession.org/members/26966/sets/99393
R: Polka
M: 2/4
L: 1/8
Q: 1/4=140
K: Bmin
Bc|:dB bB|de f>e|dB bB|c/B/A/c/ ef/e/|
dB bB|de f>e|d>e f/e/d|1  B2 B>c:|2  B2B2||
|:fe/f/ ba|fe f>e|dB bB|c/B/A/c/ ed/e/|
fe/f/ ba|fe f>e|d>e f/e/d|1  B2 B2:|2 B2 B>c||

